assets/images/icon-down.svg

<svg height="10" viewBox="0 0 15 10" width="15" xmlns="http://www.w3.org/2000/svg"><path d="m134.652332 25.3827983 4.297438 5.1569251c.530346.6364153.44436 1.5822624-.192056 2.1126085-.269572.2246438-.609372.3476681-.960276.3476681h-8.594876c-.828427 0-1.5-.6715729-1.5-1.5 0-.3509048.123025-.6907041.347668-.9602766l4.297438-5.1569251c.530346-.6364153 1.476193-.7224014 2.112609-.1920553.069694.0580788.133976.1223607.192055.1920553z" fill="#e15252" fill-rule="evenodd" transform="matrix(-1 0 0 -1 141 34)"/></svg>

<?xml version="1.0" encoding="UTF-8"?>
<svg width="15px" height="10px" viewBox="0 0 15 10" version="1.1" xmlns="http://www.w3.org/2000/svg" xmlns:xlink="http://www.w3.org/1999/xlink">
    <title>下跌icon</title>
    <g id="页面-1" stroke="none" stroke-width="1" fill="none" fill-rule="evenodd">
        <g id="所需要icon" transform="translate(-126.000000, -23.000000)" fill="#E15252">
            <path d="M134.652332,25.3827983 L138.94977,30.5397234 C139.480116,31.1761387 139.39413,32.1219858 138.757714,32.6523319 C138.488142,32.8769757 138.148342,33 137.797438,33 L129.202562,33 C128.374135,33 127.702562,32.3284271 127.702562,31.5 C127.702562,31.1490952 127.825587,30.8092959 128.05023,30.5397234 L132.347668,25.3827983 C132.878014,24.746383 133.823861,24.6603969 134.460277,25.190743 C134.529971,25.2488218 134.594253,25.3131037 134.652332,25.3827983 Z" id="下跌" transform="translate(133.500000, 28.500000) rotate(-180.000000) translate(-133.500000, -28.500000) "></path>
        </g>
    </g>
</svg>
